X: 20069
T: Jimmy McBride's
R: reel
M: 4/4
K: Cmajor
GDEG cAGF|(3EEE CD EGcd|edde dcAc|eage dccA|
GD (3EFG cAGF|DECD EGcd|edde dcAG|1 EFFG ECC^F:|2 EFFG ECC^f||
|:^fgfg ec~c2|ecgc edce|Adce defg|(3agf ge effg|
ec~c2 GcEc|AF~F2 CFA,F|FGG^F GABc|1 dcBd Bcc^f:|2 dcBd cA^FA||

